X: 1
T: Harvest Home Hornpipe
C: trad.
O: arr. by Tom Morley
R: hornpipe, reel
S: Fiddle Hell Online 2021-11-04
Z: 2022 John Chambers <jc:trillian.mit.edu>
M: 4/4
L: 1/8
K: D
(uAF) |\
"D"vDAFA DAFA | "D"vd(uefe) vd(ucBA) |\
"A"eAfA gAfA | (3(vefe) (3(dcB) (3(ABA) (3(GFE) ||\
"D"DAFA DAFA |
"D"vd(uefe) d(cBA) |\
"A"eAfA "A7"gece | "D"d2f2 d2 :: (ucd) |\
"A"(veA) (3uAvAuA "DD"(vfA) (3uAAA | "A"gAfA (veA) (3uAAA |
"A"eAfA gAfA | (3(vefe) (3(dcB) (3(ABA) (3(GFE) ||\
"D"DAFA DAFA | "D"vd(uefe) d(cBA) |\
"A"eAfA "A7"gece | "D"d2f2 d2 :|
